static/img/device/component-pvc-anchors2.svg

<svg xmlns="http://www.w3.org/2000/svg" width="47" height="85" fill="none" viewBox="0 0 47 85"><g clip-path="url(#a)"><path fill="#fff" d="m10.71 78.96-1.44 2.63c-.55.95-1.67.87-2.34-.11l-4.27-6.5.03-5.79.98-1.24V65.6l-.95-1.13.04-6.93.98-1.24v-2.35l-.95-1.13.04-6.97.98-1.24v-2.35l-.95-1.13v-1.32l.03-3.76h1.6c1.5.02 1.45-2.79.01-2.79H3.17l-2.92-8.5 3.81-.13L2.96 23 3.08.25l16.13.09-.09 16.95-1.01 1.21-.02 3.02 1 .99v2.36l2.68.02-3.02 8.46h-1.33c-1.44-.02-1.52 2.79-.01 2.8h.63l-.01 2.67.96 1.11-.04 7.93-.98 1.12v2.35l.95 1.25-.04 6.96-.98 1.12v2.35l.95 1.25-.06 10.83-4.34 6.45c-.68.98-1.8 1.04-2.34.09l-1.41-2.65"/><path fill="#e6e6e6" d="m14.13 81.18 2.81-6.29.03-5.73-2.62-.01.02-4.57 2.63.02.04-7.09-2.63-.01.03-4.57 2.62.02.04-7.07-2.63-.01.03-4.57 2.63.02.02-4.9.26-.28h.64l-.02 2.66.96 1.11-.04 7.93-.98 1.12-.01 2.35.96 1.25-.03 6.96-.98 1.12-.01 2.35.96 1.25-.06 10.83-4.34 6.45z"/><path fill="#b3b3b3" d="m10.28 78.08.27-49.69a.435.435 0 0 1 .87.01l-.27 49.68c0 .24-.2.43-.43.43-.24 0-.43-.2-.43-.44zM10.59 23.19l.04-7.81a.435.435 0 0 1 .87 0l-.04 7.81a.435.435 0 0 1-.87-.01z"/><path fill="#e6e6e6" d="m8.38 41.27 1.24.01-.03 4.56H8.36M8.32 52.9h1.23l-.02 4.57-1.24-.01M8.26 64.55l1.23.01-.02 4.56H8.23"/><path stroke="#666" stroke-linecap="round" stroke-linejoin="round" stroke-width=".3" d="m3.98 41.24 5.64.04-.03 4.56-5.63-.03M5.28 24.64l12.47.07M3.92 52.87l5.63.03-.02 4.57-5.64-.03M3.86 64.52l5.63.04-.02 4.56-5.64-.03M14.13 81.18l2.81-6.29.03-5.73-2.62-.01.02-4.57 2.63.02.04-7.09-2.63-.01.03-4.57 2.62.02.04-7.07-2.63-.01.03-4.57 2.63.02.02-4.9"/><path stroke="#000" stroke-linecap="round" stroke-linejoin="round" stroke-width=".5" d="m10.71 78.96-1.44 2.63c-.55.95-1.67.87-2.34-.11l-4.27-6.5.03-5.79.98-1.24V65.6l-.95-1.13.04-6.93.98-1.24v-2.35l-.95-1.13.04-6.97.98-1.24v-2.35l-.95-1.13v-1.32l.03-3.76h1.6c1.5.02 1.45-2.79.01-2.79H3.17l-2.92-8.5 3.81-.13L2.96 23 3.08.25l16.13.09-.09 16.95-1.01 1.21-.02 3.02 1 .99v2.36l2.68.02-3.02 8.46h-1.33c-1.44-.02-1.52 2.79-.01 2.8h.63l-.01 2.67.96 1.11-.04 7.93-.98 1.12v2.35l.95 1.25-.04 6.96-.98 1.12v2.35l.95 1.25-.06 10.83-4.34 6.45c-.68.98-1.8 1.04-2.34.09l-1.41-2.65"/><path fill="#fff" d="m22.44 80.3-1.93 2.3c-.72.82-1.8.53-2.27-.57l-2.9-7.21 1.17-5.67 1.2-1.02.48-2.3-.72-1.3 1.41-6.79 1.2-1.02.48-2.3-.72-1.29 1.41-6.82 1.2-1.02.48-2.3-.72-1.3.27-1.29.76-3.69 1.57.33c1.47.3 1.98-2.45.57-2.74l-1.3-.27-1.19-8.91 3.76.62-.76-1.82 4.59-22.28 15.8 3.27-3.43 16.6-1.23.98-.61 2.95.78 1.17-.48 2.31 2.64.55-4.63 7.7-1.3-.27c-1.41-.29-2.04 2.44-.57 2.74l.62.13-.54 2.61.73 1.27-1.61 7.77-1.18.9-.48 2.3.7 1.41-1.41 6.82-1.18.9-.48 2.3.7 1.42-2.19 10.6-5.53 5.47c-.86.82-1.97.66-2.31-.37l-.86-2.88"/><path fill="#e6e6e6" d="m25.36 83.15 3.99-5.6 1.16-5.61-2.57-.54.92-4.47 2.58.54 1.43-6.94L30.3 60l.92-4.48 2.58.54 1.43-6.92-2.57-.53.92-4.47 2.57.53 1-4.8.31-.22.62.12-.54 2.61.72 1.28-1.6 7.76-1.18.91-.48 2.3.7 1.41-1.41 6.82-1.18.9-.48 2.31.7 1.41-2.19 10.61-5.53 5.46z"/><path fill="#b3b3b3" d="M22.19 79.36 32.26 30.7c.05-.23.28-.39.51-.34s.39.28.34.51L23.04 79.52c-.05.24-.28.39-.51.34a.44.44 0 0 1-.34-.51zM33.32 25.61l1.58-7.65c.05-.23.28-.39.51-.34s.39.28.34.51l-1.58 7.65c-.05.23-.28.39-.51.34a.447.447 0 0 1-.34-.51"/><path fill="#e6e6e6" d="m27.59 42.9 1.21.25-.92 4.47-1.21-.25M25.24 54.28l1.2.25-.92 4.48-1.21-.25M22.87 65.69l1.21.25-.92 4.48-1.21-.25"/><path stroke="#666" stroke-linecap="round" stroke-linejoin="round" stroke-width=".3" d="m23.28 42 5.52 1.15-.92 4.47-5.52-1.14M27.83 25.98l12.21 2.53M20.93 53.39l5.51 1.14-.92 4.48L20 57.86M18.57 64.8l5.51 1.14-.92 4.48-5.52-1.15M25.36 83.15l3.99-5.6 1.16-5.61-2.57-.54.92-4.47 2.58.54 1.43-6.94L30.3 60l.92-4.48 2.58.54 1.43-6.92-2.57-.53.92-4.47 2.57.53 1-4.8"/><path stroke="#000" stroke-linecap="round" stroke-linejoin="round" stroke-width=".5" d="m22.44 80.3-1.93 2.3c-.72.82-1.8.53-2.27-.57l-2.9-7.21 1.17-5.67 1.2-1.02.48-2.3-.72-1.3 1.41-6.79 1.2-1.02.48-2.3-.72-1.29 1.41-6.82 1.2-1.02.48-2.3-.72-1.3.27-1.29.76-3.69 1.57.33c1.47.3 1.98-2.45.57-2.74l-1.3-.27-1.19-8.91 3.76.62-.76-1.82 4.59-22.28 15.8 3.27-3.43 16.6-1.23.98-.61 2.95.78 1.17-.48 2.31 2.64.55-4.63 7.7-1.3-.27c-1.41-.29-2.04 2.44-.57 2.74l.62.13-.54 2.61.73 1.27-1.61 7.77-1.18.9-.48 2.3.7 1.41-1.41 6.82-1.18.9-.48 2.3.7 1.42-2.19 10.6-5.53 5.47c-.86.82-1.97.66-2.31-.37l-.86-2.88"/></g><defs><clipPath id="a"><path fill="#fff" d="M0 0h46.53v84.33H0z"/></clipPath></defs></svg>

<svg width="47" height="85" viewBox="0 0 47 85" fill="none" xmlns="http://www.w3.org/2000/svg">
<g clip-path="url(#clip0_75_3068)">
<path d="M10.71 78.96L9.27 81.59C8.72 82.54 7.6 82.46 6.93 81.48L2.66 74.98L2.69 69.19L3.67 67.95V65.6L2.72 64.47L2.76 57.54L3.74 56.3V53.95L2.79 52.82L2.83 45.85L3.81 44.61V42.26L2.86 41.13V39.81L2.89 36.05H4.49C5.99 36.07 5.94 33.26 4.5 33.26H3.17L0.25 24.76L4.06 24.63L2.96 23L3.08 0.25L19.21 0.34L19.12 17.29L18.11 18.5L18.09 21.52L19.09 22.51V24.87L21.77 24.89L18.75 33.35H17.42C15.98 33.33 15.9 36.14 17.41 36.15H18.04L18.03 38.82L18.99 39.93L18.95 47.86L17.97 48.98V51.33L18.92 52.58L18.88 59.54L17.9 60.66V63.01L18.85 64.26L18.79 75.09L14.45 81.54C13.77 82.52 12.65 82.58 12.11 81.63L10.7 78.98" fill="white"/>
<path d="M14.13 81.18L16.94 74.89L16.97 69.16L14.35 69.15L14.37 64.58L17 64.6L17.04 57.51L14.41 57.5L14.44 52.93L17.06 52.95L17.1 45.88L14.47 45.87L14.5 41.3L17.13 41.32L17.15 36.42L17.41 36.14H18.05L18.03 38.8L18.99 39.91L18.95 47.84L17.97 48.96L17.96 51.31L18.92 52.56L18.89 59.52L17.91 60.64L17.9 62.99L18.86 64.24L18.8 75.07L14.46 81.52L14.13 81.18Z" fill="#E6E6E6"/>
<path d="M10.28 78.08L10.55 28.39C10.55 28.15 10.75 27.96 10.99 27.96C11.23 27.96 11.42 28.16 11.42 28.4L11.15 78.08C11.15 78.32 10.95 78.51 10.72 78.51C10.48 78.51 10.29 78.31 10.29 78.07L10.28 78.08Z" fill="#B3B3B3"/>
<path d="M10.59 23.19L10.63 15.38C10.63 15.14 10.83 14.95 11.07 14.95C11.31 14.95 11.5 15.15 11.5 15.38L11.46 23.19C11.46 23.43 11.26 23.62 11.02 23.62C10.78 23.62 10.59 23.42 10.59 23.18V23.19Z" fill="#B3B3B3"/>
<path d="M8.38 41.27L9.62 41.28L9.59 45.84H8.36" fill="#E6E6E6"/>
<path d="M8.31999 52.9H9.54999L9.52999 57.47L8.28999 57.46" fill="#E6E6E6"/>
<path d="M8.26 64.55L9.49 64.56L9.47 69.12H8.23" fill="#E6E6E6"/>
<path d="M3.98001 41.24L9.62001 41.28L9.59001 45.84L3.96001 45.81" stroke="#666666" stroke-width="0.3" stroke-linecap="round" stroke-linejoin="round"/>
<path d="M5.28 24.64L17.75 24.71" stroke="#666666" stroke-width="0.3" stroke-linecap="round" stroke-linejoin="round"/>
<path d="M3.92 52.87L9.55 52.9L9.53 57.47L3.89 57.44" stroke="#666666" stroke-width="0.3" stroke-linecap="round" stroke-linejoin="round"/>
<path d="M3.86 64.52L9.49 64.56L9.47 69.12L3.83 69.09" stroke="#666666" stroke-width="0.3" stroke-linecap="round" stroke-linejoin="round"/>
<path d="M14.13 81.18L16.94 74.89L16.97 69.16L14.35 69.15L14.37 64.58L17 64.6L17.04 57.51L14.41 57.5L14.44 52.93L17.06 52.95L17.1 45.88L14.47 45.87L14.5 41.3L17.13 41.32L17.15 36.42" stroke="#666666" stroke-width="0.3" stroke-linecap="round" stroke-linejoin="round"/>
<path d="M10.71 78.96L9.27 81.59C8.72 82.54 7.6 82.46 6.93 81.48L2.66 74.98L2.69 69.19L3.67 67.95V65.6L2.72 64.47L2.76 57.54L3.74 56.3V53.95L2.79 52.82L2.83 45.85L3.81 44.61V42.26L2.86 41.13V39.81L2.89 36.05H4.49C5.99 36.07 5.94 33.26 4.5 33.26H3.17L0.25 24.76L4.06 24.63L2.96 23L3.08 0.25L19.21 0.34L19.12 17.29L18.11 18.5L18.09 21.52L19.09 22.51V24.87L21.77 24.89L18.75 33.35H17.42C15.98 33.33 15.9 36.14 17.41 36.15H18.04L18.03 38.82L18.99 39.93L18.95 47.86L17.97 48.98V51.33L18.92 52.58L18.88 59.54L17.9 60.66V63.01L18.85 64.26L18.79 75.09L14.45 81.54C13.77 82.52 12.65 82.58 12.11 81.63L10.7 78.98" stroke="black" stroke-width="0.5" stroke-linecap="round" stroke-linejoin="round"/>
<path d="M22.44 80.3L20.51 82.6C19.79 83.42 18.71 83.13 18.24 82.03L15.34 74.82L16.51 69.15L17.71 68.13L18.19 65.83L17.47 64.53L18.88 57.74L20.08 56.72L20.56 54.42L19.84 53.13L21.25 46.31L22.45 45.29L22.93 42.99L22.21 41.69L22.48 40.4L23.24 36.71L24.81 37.04C26.28 37.34 26.79 34.59 25.38 34.3L24.08 34.03L22.89 25.12L26.65 25.74L25.89 23.92L30.48 1.64L46.28 4.91L42.85 21.51L41.62 22.49L41.01 25.44L41.79 26.61L41.31 28.92L43.95 29.47L39.32 37.17L38.02 36.9C36.61 36.61 35.98 39.34 37.45 39.64L38.07 39.77L37.53 42.38L38.26 43.65L36.65 51.42L35.47 52.32L34.99 54.62L35.69 56.03L34.28 62.85L33.1 63.75L32.62 66.05L33.32 67.47L31.13 78.07L25.6 83.54C24.74 84.36 23.63 84.2 23.29 83.17L22.43 80.29" fill="white"/>
<path d="M25.36 83.15L29.35 77.55L30.51 71.94L27.94 71.4L28.86 66.93L31.44 67.47L32.87 60.53L30.3 60L31.22 55.52L33.8 56.06L35.23 49.14L32.66 48.61L33.58 44.14L36.15 44.67L37.15 39.87L37.46 39.65L38.08 39.77L37.54 42.38L38.26 43.66L36.66 51.42L35.48 52.33L35 54.63L35.7 56.04L34.29 62.86L33.11 63.76L32.63 66.07L33.33 67.48L31.14 78.09L25.61 83.55L25.36 83.15Z" fill="#E6E6E6"/>
<path d="M22.19 79.36L32.26 30.7C32.31 30.47 32.54 30.31 32.77 30.36C33 30.41 33.16 30.64 33.11 30.87L23.04 79.52C22.99 79.76 22.76 79.91 22.53 79.86C22.3 79.81 22.14 79.58 22.19 79.35V79.36Z" fill="#B3B3B3"/>
<path d="M33.32 25.61L34.9 17.96C34.95 17.73 35.18 17.57 35.41 17.62C35.64 17.67 35.8 17.9 35.75 18.13L34.17 25.78C34.12 26.01 33.89 26.17 33.66 26.12C33.43 26.07 33.28 25.84 33.32 25.61Z" fill="#B3B3B3"/>
<path d="M27.59 42.9L28.8 43.15L27.88 47.62L26.67 47.37" fill="#E6E6E6"/>
<path d="M25.24 54.28L26.44 54.53L25.52 59.01L24.31 58.76" fill="#E6E6E6"/>
<path d="M22.87 65.69L24.08 65.94L23.16 70.42L21.95 70.17" fill="#E6E6E6"/>
<path d="M23.28 42L28.8 43.15L27.88 47.62L22.36 46.48" stroke="#666666" stroke-width="0.3" stroke-linecap="round" stroke-linejoin="round"/>
<path d="M27.83 25.98L40.04 28.51" stroke="#666666" stroke-width="0.3" stroke-linecap="round" stroke-linejoin="round"/>
<path d="M20.93 53.39L26.44 54.53L25.52 59.01L20 57.86" stroke="#666666" stroke-width="0.3" stroke-linecap="round" stroke-linejoin="round"/>
<path d="M18.57 64.8L24.08 65.94L23.16 70.42L17.64 69.27" stroke="#666666" stroke-width="0.3" stroke-linecap="round" stroke-linejoin="round"/>
<path d="M25.36 83.15L29.35 77.55L30.51 71.94L27.94 71.4L28.86 66.93L31.44 67.47L32.87 60.53L30.3 60L31.22 55.52L33.8 56.06L35.23 49.14L32.66 48.61L33.58 44.14L36.15 44.67L37.15 39.87" stroke="#666666" stroke-width="0.3" stroke-linecap="round" stroke-linejoin="round"/>
<path d="M22.44 80.3L20.51 82.6C19.79 83.42 18.71 83.13 18.24 82.03L15.34 74.82L16.51 69.15L17.71 68.13L18.19 65.83L17.47 64.53L18.88 57.74L20.08 56.72L20.56 54.42L19.84 53.13L21.25 46.31L22.45 45.29L22.93 42.99L22.21 41.69L22.48 40.4L23.24 36.71L24.81 37.04C26.28 37.34 26.79 34.59 25.38 34.3L24.08 34.03L22.89 25.12L26.65 25.74L25.89 23.92L30.48 1.64L46.28 4.91L42.85 21.51L41.62 22.49L41.01 25.44L41.79 26.61L41.31 28.92L43.95 29.47L39.32 37.17L38.02 36.9C36.61 36.61 35.98 39.34 37.45 39.64L38.07 39.77L37.53 42.38L38.26 43.65L36.65 51.42L35.47 52.32L34.99 54.62L35.69 56.03L34.28 62.85L33.1 63.75L32.62 66.05L33.32 67.47L31.13 78.07L25.6 83.54C24.74 84.36 23.63 84.2 23.29 83.17L22.43 80.29" stroke="black" stroke-width="0.5" stroke-linecap="round" stroke-linejoin="round"/>
</g>
<defs>
<clipPath id="clip0_75_3068">
<rect width="46.53" height="84.33" fill="white"/>
</clipPath>
</defs>
</svg>
